img/sp-4.svg

<svg width="124" height="128" viewBox="0 0 124 128" fill="none" xmlns="http://www.w3.org/2000/svg">
<path d="M73.8668 21.5481C73.8667 21.3322 73.8666 21.3322 73.7673 21.2205L66.309 4.63948C66.3089 4.42359 66.1102 4.20016 65.9114 3.97677C65.3149 2.87481 64.2221 2.29383 63.0303 2.24884C61.8385 2.20384 60.8458 2.81403 60.2505 3.87099L60.1513 3.97516C60.052 4.07936 60.0521 4.29531 59.9529 4.3995L52.613 19.8821C52.1169 20.619 52.018 21.3708 51.9192 22.1227L51.9294 39.394L44.4844 45.0498L44.3851 45.1541C43.591 45.7718 43.095 46.7245 43.0957 47.8039C43.0968 49.747 44.3887 51.199 46.1764 51.2665C46.1764 51.2665 46.1764 51.2665 46.2758 51.3782L52.036 51.5957L52.037 53.3228C52.0384 55.6976 53.8272 57.7082 56.0121 57.7906L57.7998 57.8581L57.8993 58.1857C58.0982 58.625 58.3964 58.9601 58.7936 58.9751L66.9373 59.2826C67.3346 59.2976 67.7317 59.0967 67.8307 58.5607L67.9298 58.2406L69.9161 58.3156C70.9093 58.3531 71.9022 57.9588 72.6962 57.1252C73.4902 56.2917 73.8868 55.2272 73.8861 54.1477L73.8854 52.8524L79.6456 53.0699C79.6456 53.0699 79.7449 52.9657 79.8443 53.0773C79.8443 53.0773 79.9436 53.189 80.0428 53.0848C80.8374 53.1148 81.731 52.8248 82.3265 52.1996C82.922 51.5744 83.3188 50.7258 83.2189 49.7506C83.2181 48.4552 82.6216 47.3533 81.628 46.6681L81.5286 46.5564L74.0765 40.3382L74.0662 22.8509C74.0659 22.4191 74.0657 21.9874 73.8668 21.5481ZM46.4735 49.8745C46.2749 49.867 46.2749 49.8669 46.2749 49.8669C45.2817 49.8295 44.4867 48.9359 44.4861 47.8564C44.4857 47.2088 44.8825 46.5761 45.3789 46.271C45.4781 46.1668 45.4781 46.1668 45.5774 46.0626L52.1291 41.1287L52.1344 50.1962L46.4735 49.8745ZM80.536 47.3824C80.6354 47.4941 80.7348 47.6059 80.8342 47.7175C81.5296 48.0676 81.9272 48.7304 81.9277 49.5939C81.9279 50.0257 81.7297 50.6658 81.432 50.9784C81.1342 51.291 80.6378 51.5961 80.1412 51.4694C80.1412 51.4694 80.1412 51.4694 80.0418 51.3577L79.8432 51.3502C79.7438 51.2385 79.6446 51.3427 79.5453 51.4469L73.9837 51.2369L73.9782 41.9536L80.536 47.3824ZM71.9801 22.0166C72.0796 22.3441 72.0798 22.56 72.0799 22.7759L72.1977 53.976C72.1981 54.6237 71.9997 55.048 71.6027 55.4648C71.5035 55.569 71.305 55.7774 71.1064 55.7699C71.0071 55.8741 70.7093 55.9708 70.5106 55.9633C70.312 55.9558 70.2127 56.06 70.1133 55.9483L67.5312 55.8508C67.3326 55.8433 67.0347 55.94 66.8362 56.1484C66.7369 56.2525 66.6377 56.3567 66.6378 56.5726L66.5387 56.8927L59.7853 56.6378L59.6858 56.3102C59.4869 55.8709 59.1888 55.5358 58.7915 55.5208L56.2094 55.4233C55.0176 55.3783 54.1232 54.3731 54.1224 53.0777L54.1038 21.7734C54.1036 21.3417 54.2027 21.0215 54.4011 20.5973C54.4011 20.5973 54.401 20.5973 54.5003 20.4931L61.9395 4.90624C61.9395 4.90624 61.9395 4.90627 62.0387 4.80207L62.1379 4.6979C62.3363 4.27362 62.8327 3.96851 63.4285 3.99101C63.8258 4.00601 64.3226 4.34854 64.6207 4.68362C64.7201 4.79532 64.8195 4.90707 64.7202 5.01126C64.7202 5.01126 64.7202 5.01127 64.8196 5.12296L71.9801 22.0166C71.8808 21.9049 71.98 21.8007 71.9801 22.0166Z" fill="#FE1845"/>
<path d="M61.8078 40.2875C60.9581 40.2589 60.2774 40.6053 59.6808 41.2317C59.0841 41.858 58.8268 42.6805 58.7395 43.5087L58.7232 49.2338C58.718 51.0806 60.0732 52.6038 61.7726 52.6611L64.3216 52.747C65.1713 52.7756 65.852 52.4291 66.4486 51.8028C67.0452 51.1764 67.3025 50.354 67.3898 49.5258L67.4062 43.8007C67.4088 42.8773 67.071 42.1271 66.4781 41.4606C65.8852 40.7942 65.1213 40.4915 64.3568 40.3734L61.8078 40.2875ZM65.7068 43.7434L65.6905 49.4685C65.6895 49.8379 65.5185 50.2015 65.2628 50.4699C65.0071 50.7384 64.6667 50.9116 64.3268 50.9002L61.7778 50.8143C61.0981 50.7914 60.4205 50.0298 60.4226 49.291L60.4388 43.566C60.4399 43.1966 60.6109 42.8329 60.8666 42.5645C61.1223 42.2961 61.4627 42.1228 61.8026 42.1343L64.3516 42.2202C64.6914 42.2316 65.0308 42.4277 65.2849 42.7134C65.539 42.999 65.7079 43.3741 65.7068 43.7434Z" fill="#FE1845"/>
<path d="M61.6786 26.0614C60.9131 26.3127 60.2324 26.6591 59.6358 27.2854C58.6982 28.2697 58.1847 29.5453 58.2657 30.9333C58.2615 32.4107 58.7677 33.7206 59.6147 34.6727C60.5465 35.7199 61.7344 36.314 63.0092 36.2646C64.3686 36.3104 65.5598 35.7964 66.4121 34.9016C67.3496 33.9174 67.8631 32.6418 67.7821 31.2538C67.7863 29.7764 67.2802 28.4665 66.4332 27.5144C65.5014 26.4672 64.3134 25.8731 63.0386 25.9225C62.6988 25.911 62.189 25.8939 61.6786 26.0614ZM66.2527 31.2023C66.25 32.1257 65.9928 32.9482 65.3962 33.5745C64.7995 34.2009 64.0341 34.4521 63.1844 34.4235C62.3347 34.3949 61.5708 34.0921 60.9779 33.4257C60.3849 32.7592 60.1324 31.9196 60.135 30.9962C60.1377 30.0728 60.3949 29.2504 60.9915 28.624C61.5882 27.9977 62.3536 27.7464 63.2033 27.775C64.053 27.8037 64.8169 28.1064 65.4098 28.7729C65.9175 29.5288 66.2553 30.2789 66.2527 31.2023Z" fill="#FE1845"/>
<path d="M115.182 109.411H7.93684C3.48444 109.411 0 106.898 0 103.687V47.981C0 44.7699 3.48444 42.2568 7.93684 42.2568H36.587C37.3614 42.2568 37.9421 42.6757 37.9421 43.2341V74.0889H87.6929V43.2341C87.6929 42.6757 88.2736 42.2568 89.048 42.2568H115.182C119.634 42.2568 123.118 44.7699 123.118 47.981V103.687C123.118 106.898 119.634 109.411 115.182 109.411ZM8.13049 44.2114C5.22675 44.2114 2.71008 46.0264 2.71008 48.1206V103.687C2.71008 105.781 5.22675 107.596 8.13049 107.596H115.375C118.279 107.596 120.795 105.781 120.795 103.687V47.981C120.795 45.8868 118.279 44.0718 115.375 44.0718H90.4031V74.9266C90.4031 75.4851 89.8223 75.9039 89.048 75.9039H36.7807C36.0064 75.9039 35.4256 75.4851 35.4256 74.9266V44.0718H8.13049V44.2114Z" fill="#9EA3B2"/>
<path d="M79.7004 124.385H47.5248C47.2046 124.385 46.8845 124.261 46.7244 124.012C46.5643 123.763 46.4043 123.514 46.5644 123.265L51.3667 109.328C51.5268 108.954 51.8469 108.705 52.3271 108.705H75.0582C75.5384 108.705 76.0186 108.954 76.0186 109.328L80.6609 123.141C80.821 123.265 80.8209 123.39 80.8209 123.514C80.8209 124.012 80.3407 124.385 79.7004 124.385ZM48.9655 122.768H78.4198L74.2578 110.448H53.1275L48.9655 122.768Z" fill="#9EA3B2"/>
<path d="M93.9483 127.745H33.4389C32.7986 127.745 32.3184 127.372 32.3184 126.874V123.514C32.3184 123.017 32.7986 122.643 33.4389 122.643H93.9483C94.5887 122.643 95.0689 123.017 95.0689 123.514V126.874C94.9088 127.372 94.4286 127.745 93.9483 127.745ZM34.3994 126.128H92.8278V124.385H34.3994V126.128Z" fill="#9EA3B2"/>
<path d="M63.9587 102.402C62.6397 102.402 61.5605 101.445 61.5605 100.275C61.5605 99.1048 62.6397 98.1474 63.9587 98.1474C65.2777 98.1474 66.3569 99.1048 66.3569 100.275C66.237 101.551 65.1578 102.402 63.9587 102.402ZM63.9587 99.6367C63.4791 99.6367 63.1194 99.9558 63.1194 100.381C63.1194 100.807 63.4791 101.02 63.9587 101.02C64.4384 101.02 64.6782 100.7 64.6782 100.381C64.6782 99.9558 64.3185 99.6367 63.9587 99.6367Z" fill="#FD2E56"/>
<path d="M100.069 82.3653H25.9939C25.1224 82.3653 24.4688 81.9919 24.4688 81.4942V72.5343C24.4688 72.0365 25.1224 71.6632 25.9939 71.6632C26.8653 71.6632 27.519 72.0365 27.519 72.5343V80.6231H98.7621V72.5343C98.7621 72.0365 99.4158 71.6632 100.287 71.6632C101.159 71.6632 101.812 72.0365 101.812 72.5343V81.4942C101.377 81.9919 100.723 82.3653 100.069 82.3653Z" fill="#FE1845"/>
<path d="M64.8504 71.0818L64.8072 66.0005C64.8032 65.5605 64.2158 65.2054 63.4949 65.2079C62.775 65.21 62.1926 65.5679 62.1964 66.0089L62.2398 71.0899C62.2436 71.5302 62.8312 71.885 63.5521 71.8825C64.2731 71.8805 64.8545 71.5218 64.8504 71.0818V71.0818Z" fill="#FD2E56"/>
<path d="M53.3695 66.6983L56.9833 64.3977C57.4824 64.08 57.4653 63.5756 56.9448 63.2709C56.4243 62.9663 55.5981 62.9771 55.099 63.2949L51.485 65.5957C50.9826 65.9152 51.0073 66.4197 51.5238 66.7223C52.0443 67.0269 52.8709 67.0162 53.3695 66.6983Z" fill="#FD2E56"/>
<path d="M75.4806 65.2883L71.7119 63.0815C71.1914 62.7769 70.3655 62.7874 69.866 63.105C69.3676 63.4226 69.3838 63.9267 69.9045 64.2318L73.6734 66.4384C74.1939 66.743 75.0202 66.7326 75.5193 66.4149C76.0182 66.0974 76.0011 65.593 75.4806 65.2883V65.2883Z" fill="#FD2E56"/>
</svg>

<svg width="124" height="128" fill="none" xmlns="http://www.w3.org/2000/svg"><path d="M73.867 21.548c0-.216 0-.216-.1-.327L66.31 4.639c0-.215-.199-.439-.398-.662-.596-1.102-1.689-1.683-2.88-1.728-1.192-.045-2.185.565-2.78 1.622l-.1.104c-.099.104-.099.32-.198.424l-7.34 15.483c-.496.737-.595 1.489-.694 2.24l.01 17.272-7.445 5.656-.099.104a3.329 3.329 0 0 0-1.29 2.65c.002 1.943 1.294 3.395 3.081 3.462l.1.112 5.76.218.001 1.727c.001 2.375 1.79 4.385 3.975 4.468l1.788.067.1.328c.198.439.496.774.894.79l8.143.307c.398.015.795-.186.894-.722l.099-.32 1.986.075c.993.037 1.986-.357 2.78-1.19a4.287 4.287 0 0 0 1.19-2.978v-1.296l5.76.218s.099-.104.198.007c0 0 .1.112.199.008.794.03 1.688-.26 2.283-.885.596-.626.993-1.474.893-2.45 0-1.295-.597-2.397-1.591-3.082l-.1-.112-7.452-6.218-.01-17.487c0-.432 0-.864-.2-1.303zM46.473 49.874l-.198-.007c-.993-.037-1.788-.931-1.789-2.01 0-.648.397-1.28.893-1.586l.198-.208 6.552-4.934.005 9.067-5.66-.322zm34.063-2.492l.298.336c.696.35 1.093 1.012 1.094 1.876 0 .432-.198 1.072-.496 1.384-.298.313-.794.618-1.29.491l-.1-.111-.199-.008c-.1-.111-.198-.007-.298.097l-5.561-.21-.006-9.283 6.558 5.428zM71.98 22.017c.1.327.1.543.1.759l.118 31.2c0 .648-.198 1.072-.595 1.489-.1.104-.298.312-.497.305-.099.104-.397.2-.595.193-.199-.007-.298.097-.398-.015l-2.582-.097a.99.99 0 0 0-.695.297c-.1.104-.198.209-.198.425l-.1.32-6.753-.255-.1-.328c-.198-.44-.496-.774-.894-.79l-2.582-.097c-1.191-.045-2.086-1.05-2.087-2.345l-.018-31.305c0-.431.099-.752.297-1.176l.1-.104L61.94 4.906l.099-.104.099-.104c.198-.424.695-.73 1.29-.707.398.015.895.358 1.193.693.1.111.199.223.1.327l.099.112 7.16 16.894c-.1-.112 0-.216 0 0z" fill="#FE1845"/><path d="M61.808 40.288c-.85-.03-1.53.317-2.127.944-.597.626-.854 1.449-.941 2.277l-.017 5.725c-.005 1.847 1.35 3.37 3.05 3.427l2.549.086c.85.029 1.53-.318 2.127-.944.596-.627.853-1.449.94-2.277l.017-5.725c.003-.924-.335-1.674-.928-2.34-.593-.667-1.357-.97-2.121-1.088l-2.55-.085zm3.899 3.455l-.016 5.725c-.002.37-.172.733-.428 1.002-.256.268-.596.442-.936.43l-2.55-.086c-.679-.023-1.357-.784-1.354-1.523l.016-5.725c0-.37.172-.733.428-1.002.255-.268.596-.441.936-.43l2.549.086c.34.012.679.208.933.493.254.286.423.661.422 1.03zM61.679 26.061c-.766.252-1.447.598-2.043 1.224-.938.985-1.451 2.26-1.37 3.648-.005 1.478.502 2.788 1.349 3.74.931 1.047 2.12 1.641 3.394 1.592 1.36.045 2.55-.469 3.403-1.363.938-.985 1.451-2.26 1.37-3.648.004-1.478-.502-2.788-1.349-3.74-.932-1.047-2.12-1.64-3.394-1.591-.34-.012-.85-.03-1.36.138zm4.574 5.141c-.003.924-.26 1.746-.857 2.372-.597.627-1.362.878-2.212.85-.85-.03-1.613-.332-2.206-.998-.593-.667-.846-1.506-.843-2.43.003-.923.26-1.746.857-2.372.596-.626 1.362-.878 2.211-.849.85.029 1.614.331 2.207.998.508.756.845 1.506.843 2.43z" fill="#FE1845"/><path d="M115.182 109.411H7.937c-4.453 0-7.937-2.513-7.937-5.724V47.981c0-3.211 3.484-5.724 7.937-5.724h28.65c.774 0 1.355.419 1.355.977V74.09h49.75V43.234c0-.558.582-.977 1.356-.977h26.134c4.452 0 7.936 2.513 7.936 5.724v55.706c0 3.211-3.484 5.724-7.936 5.724zM8.13 44.211c-2.903 0-5.42 1.815-5.42 3.91v55.566c0 2.094 2.517 3.909 5.42 3.909h107.245c2.904 0 5.42-1.815 5.42-3.909V47.981c0-2.094-2.516-3.91-5.42-3.91H90.403v30.856c0 .558-.58.977-1.355.977H36.781c-.775 0-1.355-.419-1.355-.977V44.072H8.13v.14z" fill="#9EA3B2"/><path d="M79.7 124.385H47.525c-.32 0-.64-.124-.8-.373-.16-.249-.32-.498-.16-.747l4.802-13.937c.16-.374.48-.623.96-.623h22.731c.48 0 .96.249.96.623l4.643 13.813c.16.124.16.249.16.373 0 .498-.48.871-1.12.871zm-30.735-1.617H78.42l-4.162-12.32h-21.13l-4.163 12.32z" fill="#9EA3B2"/><path d="M93.948 127.745h-60.51c-.64 0-1.12-.373-1.12-.871v-3.36c0-.497.48-.871 1.12-.871h60.51c.64 0 1.12.374 1.12.871v3.36c-.16.498-.64.871-1.12.871zM34.4 126.128h58.429v-1.743H34.399v1.743z" fill="#9EA3B2"/><path d="M63.959 102.402c-1.32 0-2.399-.957-2.399-2.127s1.08-2.128 2.399-2.128 2.398.958 2.398 2.128c-.12 1.276-1.2 2.127-2.398 2.127zm0-2.765c-.48 0-.84.319-.84.744 0 .426.36.639.84.639s.72-.32.72-.639a.748.748 0 0 0-.72-.744z" fill="#FD2E56"/><path d="M100.069 82.365H25.994c-.872 0-1.525-.373-1.525-.87v-8.96c0-.498.653-.872 1.525-.872.871 0 1.525.374 1.525.871v8.09h71.243v-8.09c0-.498.654-.87 1.525-.87.872 0 1.525.373 1.525.87v8.96c-.435.498-1.089.871-1.743.871z" fill="#FE1845"/><path d="M64.85 71.082L64.807 66c-.004-.44-.591-.796-1.312-.793-.72.002-1.302.36-1.299.8l.044 5.082c.004.44.591.795 1.312.792.721-.002 1.303-.36 1.298-.8zM53.37 66.698l3.613-2.3c.5-.318.482-.822-.038-1.127-.52-.305-1.347-.294-1.846.024l-3.614 2.3c-.502.32-.478.825.039 1.127.52.305 1.347.294 1.846-.024zM75.48 65.288l-3.768-2.206c-.52-.305-1.347-.295-1.846.023-.498.318-.482.822.038 1.127l3.77 2.206c.52.305 1.346.295 1.845-.023.5-.318.482-.822-.038-1.127z" fill="#FD2E56"/></svg>
